public/illustrations/_tree.svg

<svg width="244" height="323" viewBox="0 0 244 323" fill="none" xmlns="http://www.w3.org/2000/svg">
<path d="M192.829 282.779C200.234 284.308 201.182 285.214 201.649 292.704C202.074 299.77 202.499 306.849 202.782 313.801C202.91 315.075 202.754 316.363 202.456 317.68C202.4 318.544 201.904 319.294 201.395 319.917C200.885 320.54 200.092 321.05 199.257 321.276C196.765 321.956 194.259 322.494 191.724 322.749C186.344 323.004 180.921 322.848 175.64 322.664C170.231 322.636 164.653 322.353 159.103 322.338C150.692 322.197 142.282 322.041 133.73 321.899C128.039 321.899 122.488 321.899 116.797 321.899C111.105 321.899 105.526 321.616 99.8346 321.616C94.5675 321.574 89.3005 321.545 84.1751 321.489C78.186 321.375 72.1969 321.276 66.2077 321.163C60.7991 321.135 55.3906 321.121 50.1235 321.078C44.276 320.951 38.4285 320.838 32.4394 320.724C27.5971 320.639 22.7407 320.568 17.8984 320.484C17.0489 320.568 16.171 320.229 15.2932 320.031C14.4153 319.832 13.7924 319.323 13.1694 318.685C12.6738 318.02 12.3057 317.213 12.2208 316.363C12.0367 314.537 11.8669 312.838 11.8244 310.997C11.9376 305.008 12.0367 299.019 12.2916 293.016C12.3482 290.736 12.4048 288.457 12.7305 286.135C13.042 283.544 14.1039 281.448 17.0348 280.868C18.9745 280.386 20.9142 279.763 23.2645 279.098C23.4486 278.079 23.6327 277.073 23.6752 276.068C23.6327 272.797 23.576 269.385 23.5335 266.129C23.3495 258.61 23.1371 250.937 22.9531 243.418C22.7124 233.904 22.6133 224.531 22.5141 215.002C22.2734 205.487 22.1885 196.256 21.9761 187.025C21.6929 174.381 21.5655 161.737 21.2682 148.952C21.0558 139.721 20.8293 130.504 20.7585 121.258C20.8434 114.986 20.2205 108.784 21.2824 102.427C23.5477 88.2542 29.3103 74.7186 37.9754 63.3209C46.0033 52.5462 56.8205 44.2068 69.2802 39.2513C75.4109 36.5045 81.7398 34.4375 88.3236 33.3473C92.8119 32.7526 97.1303 31.7473 101.633 31.2942C108.415 30.7562 115.267 31.0536 121.922 32.1013C131.153 33.3048 140.059 35.5418 148.654 38.9399C161.382 43.7821 170.939 52.4897 178.712 63.2361C181.204 66.8324 183.441 70.5843 185.664 74.3505C188.935 79.9998 191.271 86.173 192.63 92.5726C194.301 99.2413 194.839 106.009 194.386 112.89C193.876 117.775 194.23 122.589 194.145 127.431C194.004 135.983 193.876 144.535 193.749 153.086C193.721 158.495 193.706 163.904 193.664 169.171C193.607 175.726 193.565 182.267 193.494 188.681C193.466 194.09 193.452 199.498 193.409 204.765C193.268 213.317 193.14 221.869 193.14 230.407C193.112 235.815 193.084 241.082 193.055 246.491C192.999 253.046 192.956 259.587 192.885 266.001C192.73 271.566 192.729 277.116 192.729 282.808H192.871L192.829 282.779ZM141.872 131.523C143.726 131.622 145.468 131.877 147.309 131.834C149.73 131.877 152.207 132.486 154.317 133.548C156.554 134.609 158.423 136.125 160.037 138.093C162.161 140.868 163.761 143.983 164.667 147.31C166.734 153.653 166.932 159.883 162.529 165.603C162.147 166.07 161.92 166.665 161.849 167.372C161.906 167.939 161.977 168.647 162.317 169.171C163.563 171.606 164.681 174.339 165.517 176.958C168.617 188.03 164.582 200.107 153.029 204.114C152.462 204.171 152.066 204.496 151.684 204.822C151.287 205.148 151.046 205.601 150.806 206.054C149.376 210.188 146.459 213.756 142.523 215.71C140.371 216.928 140.413 217.352 140.81 219.873C141.503 223.936 142.197 227.986 142.466 232.092C143.033 237.727 143.174 243.404 143.726 248.898C144.647 258.058 145.425 267.219 146.233 276.535C146.402 278.22 146.445 280.075 146.473 281.774C150.707 282.765 179.633 283.275 182.96 282.369C183.045 276.096 183.116 269.824 183.059 263.58C183.031 257.605 182.974 251.489 182.946 245.514C183.045 236.679 183.158 227.844 183.257 219.009C183.229 215.88 183.357 212.878 183.314 209.749C183.456 204.043 183.456 198.493 183.611 192.929C183.668 189.219 183.583 185.538 183.484 181.843C183.583 175.712 183.668 169.581 183.767 163.45C183.767 157.759 183.739 151.926 183.739 146.234C183.88 137.682 184.008 129.13 184.008 120.593C183.88 117.902 184.036 115.184 184.192 112.466C184.985 106.264 183.795 100.119 182.493 94.1442C180.327 83.9783 175.159 74.9594 168.787 66.9173C165.701 63.1086 162.501 59.5831 158.89 56.2416C154.02 51.7534 147.917 49.0915 141.872 46.8545C130.941 42.8334 119.218 40.8796 107.551 40.9221C95.587 40.8513 83.7504 43.3149 72.8765 48.3979C68.374 50.281 64.0415 52.5604 60.0488 55.2364C51.9359 60.8857 45.7343 68.4889 40.7363 76.8141C36.956 83.0297 34.0818 89.8683 32.5243 96.9901C30.981 104.268 30.4571 111.715 30.627 119.092C30.7686 129.031 31.0801 139.112 31.2217 149.051C31.4482 159.84 31.6748 170.487 31.9013 181.29C31.9721 184.844 32.0571 188.525 32.1278 192.079C32.1278 199.187 32.1279 206.167 32.2553 213.133C32.3403 221.09 32.7225 229.019 32.9491 236.976C33.0199 240.53 33.1048 244.211 33.1756 247.765C33.3172 257.704 33.3314 267.672 33.4871 277.753C33.5437 278.319 33.7419 278.871 34.0817 279.395C44.4176 280.344 71.2199 280.783 74.4056 279.891C76.3312 258.073 78.3984 236.226 80.2956 214.124C60.5018 212.567 49.1182 191.371 55.7303 176.477C52.0491 172.441 48.7643 168.066 48.1838 162.29C47.2069 156.839 48.4811 151.161 51.4261 146.446C54.6401 141.576 59.6948 139.494 64.7919 137.838C64.7919 127.884 69.1953 120.748 77.563 116.345C86.483 111.602 94.7092 114.193 102.341 119.403C111.855 115.028 111.034 115.255 118.935 114.603C121.327 114.363 123.777 114.688 126.028 115.736C133.32 118.851 139.054 123.537 141.999 131.636L141.843 131.509L141.872 131.523ZM139.974 205.856C140.923 203.916 141.758 202.401 142.311 200.787C143.443 197.969 145.1 195.959 148.158 195.222C148.866 195.152 149.673 194.783 150.353 194.43C151.995 193.835 153.595 192.674 154.586 191.301C155.733 189.899 156.398 188.129 156.498 186.274C156.809 183.683 156.554 181.149 155.733 178.671C154.912 176.193 153.68 173.9 151.938 172.087C149.22 169.086 149.093 166.396 151.627 163.295C152.533 162.346 153.284 161.426 154.034 160.35C154.898 158.976 155.436 157.362 155.705 155.777C155.775 152.209 154.841 148.612 152.689 145.554C152.009 144.478 151.061 143.586 149.999 142.836C148.937 142.227 147.634 141.929 146.346 141.929C144.222 142 142.07 141.788 139.776 141.731C135.642 141.731 133.645 140.216 132.272 136.507L132.159 135.374C131.677 133.434 130.771 131.523 129.483 129.951C128.194 128.38 126.637 127.105 124.825 126.157C123.012 125.208 121.115 124.684 118.963 124.472C116.967 124.387 114.843 124.599 113.073 125.35C110.595 126.171 108.132 127.134 106.39 129.583C104.153 132.797 101.151 132.67 98.2912 129.682C96.5497 127.87 94.5251 126.214 92.1464 125.18C90.2067 124.231 88.0262 123.892 85.9024 123.962C83.7928 124.175 81.7256 124.812 79.8425 126.001C78.1152 127.176 76.5718 128.889 75.6374 130.843C74.6887 132.783 74.349 134.963 74.4197 137.087C74.5472 138.361 74.5331 139.636 74.3773 140.938C73.9809 145.526 72.7066 146.942 68.2608 147.961L66.4342 148.145C64.8909 148.301 63.2061 148.612 61.8752 149.462C60.5443 150.311 59.3832 151.557 58.6612 152.917C57.6984 154.715 57.217 156.909 57.1462 159.047C57.217 161.171 57.8542 163.238 58.8877 164.994C60.0771 166.863 61.5071 168.434 63.2203 169.822C66.9723 173.149 67.4962 175.514 65.0892 179.875C64.7211 180.483 64.3671 181.234 64.0132 181.97C63.5742 183.301 63.2769 184.604 63.2769 186.034C64.1547 193.339 67.1989 199.583 74.4764 202.557C75.2269 202.91 75.9631 203.123 76.6852 203.335C77.1383 203.576 77.7046 203.519 78.1293 203.477C78.6957 203.42 79.1204 203.378 79.4886 202.91C79.885 202.585 80.2814 202.259 80.5221 201.806C80.7628 201.353 80.8619 200.914 80.9469 200.334C81.1309 199.314 81.315 198.309 81.4991 197.29C81.8106 196.114 82.4335 195.208 83.3539 194.543C84.2742 193.877 85.5344 193.608 86.6954 193.778C87.7006 193.821 88.7058 194.005 89.7111 194.047C100.684 194.217 111.657 194.401 122.644 194.713C125.49 194.713 128.209 194.868 131.083 195.137C135.118 195.591 135.897 196.355 136.576 200.277C136.916 202.231 137.822 204.142 139.252 205.7L139.988 205.912L139.974 205.856ZM191.88 293.115C180.029 292.747 168.759 292.449 157.489 292.166C146.218 291.883 134.962 291.727 123.692 291.444C112.422 291.161 101.463 291.119 90.3341 290.821C79.2054 290.524 67.7652 289.958 56.5091 289.816C45.253 289.674 34.0959 289.08 22.5849 289.25L21.9903 310.233C23.7035 310.346 25.3034 310.615 26.7192 310.615C28.1351 310.615 29.5368 310.332 30.9668 310.473L55.9144 310.955C58.9018 310.941 61.7478 310.941 64.7495 311.054C70.4554 311.195 76.3028 311.309 82.0088 311.45C87.4174 311.479 92.826 311.493 98.0931 311.535C103.799 311.677 109.647 311.79 115.352 311.932C121.058 312.073 126.878 311.904 132.569 311.904C140.838 312.073 149.248 312.215 157.517 312.385C162.642 312.441 167.768 312.484 172.907 312.541C178.613 312.682 184.461 312.796 190.153 312.796C191.002 312.711 191.696 312.64 192.517 312.272L191.724 293.143H191.866L191.88 293.115ZM108.117 280.924C111.303 281.463 114.588 281.547 117.717 281.519C120.846 281.491 123.862 281.76 126.991 281.717C130.12 281.689 133.334 282.496 136.661 281.604C136.35 275.657 136.208 269.98 135.755 264.189C135.217 258.837 134.268 253.669 134.014 248.289C133.433 234.116 130.913 220.283 129.341 206.21C129.299 205.785 128.973 205.388 128.647 204.992C121.95 204.949 115.069 204.369 108.146 204.921C106.319 212.227 106.886 219.278 107.593 226.315C108.301 233.352 109.363 235.39 110.1 239.865C112.294 251.744 111.969 264.005 109.151 275.672C108.74 277.271 108.471 278.871 107.976 280.91H108.117V280.924ZM97.5975 280.995C98.6027 276.903 99.9195 272.939 100.656 269.017C102.114 259.474 102.001 249.818 100.189 240.318C99.07 233.451 98.0931 226.584 97.3993 219.674C97.1869 216.135 97.2435 212.439 97.5975 208.985C97.5975 207.569 97.5975 206.28 97.7391 204.709L91.8632 204.298C90.6739 207.979 84.4866 276.62 85.0387 280.684L97.7533 281.109L97.5975 280.981V280.995Z" fill="#102185"/>
<path d="M39.3915 21.0291C39.2075 22.0485 38.8819 23.068 38.542 23.96C37.9474 25.1635 37.2394 26.5085 36.489 27.5845C32.9352 33.2055 31.038 39.8034 30.8539 46.5146C30.8539 49.2189 30.5282 51.81 30.1034 54.5567C29.9335 55.7177 29.4663 56.7513 28.7018 57.5442C27.923 58.3371 26.847 58.8751 25.7143 58.9884C24.5816 59.1016 23.4347 58.9316 22.3728 58.3228C21.3109 57.714 20.6597 56.7937 20.1358 55.845C19.5694 54.4858 19.4136 52.9284 18.8331 51.4276C17.5872 47.5623 16.3412 43.7112 14.9678 39.8601C13.6228 36.4337 11.1875 34.8338 7.42125 35.6409L6.71332 35.7116C4.17892 35.9664 2.12597 35.3151 0.752576 33.0356C0.228705 32.0869 -0.026192 30.9825 0.00212527 29.8357C0.0304426 28.6889 0.497699 27.6553 1.26227 26.8624C2.3808 25.1917 3.62672 23.4927 5.02843 21.9353C7.71858 18.962 9.48849 15.3656 10.2389 11.4437C10.5079 9.85793 10.9326 8.38552 11.3432 6.92719C11.8954 5.31311 12.4476 3.82639 13.4529 2.43885C15.6899 -0.775151 19.3854 -0.860075 21.7074 2.4672C23.0524 4.46356 24.3975 6.60145 25.4735 8.78187C26.2098 10.4101 27.3284 11.7269 28.7159 12.718C30.1035 13.7091 31.7317 14.4029 33.459 14.6577C37.6358 15.0966 39.0801 16.7957 39.3491 20.8875V21.0291H39.3915ZM15.5342 25.8572L23.0241 32.356L26.9885 23.7051L19.4561 18.1974L15.6758 25.8431H15.5342V25.8572Z" fill="#102185"/>
<path d="M225.988 181.106C227.291 181.262 228.452 181.574 229.755 181.729C233.224 182.239 236.664 182.451 240.006 183.259C243.347 184.066 244.862 187.605 243.333 190.89C242.851 191.796 242.37 192.688 241.761 193.608C239.652 196.667 238.151 200.093 237.372 203.732C236.763 206.21 236.607 208.786 236.721 211.335C236.976 213.869 236.806 216.446 236.777 219.009C236.891 220.142 236.579 221.303 235.829 222.237C235.064 223.171 234.144 223.837 233.025 224.078C231.779 224.488 230.633 224.318 229.443 223.865C228.254 223.412 227.447 222.365 226.909 221.274C225.677 218.981 224.87 216.644 223.794 214.337C222.874 212.298 221.684 210.287 220.481 208.262C219.801 207.186 218.867 206.436 217.819 205.827C216.63 205.374 215.483 205.204 214.209 205.332C212.934 205.459 211.674 205.587 210.485 205.133C209.621 205.077 208.885 204.723 208.12 204.227C207.497 203.718 206.86 203.066 206.506 202.401C206.138 201.58 205.912 200.759 205.968 199.895C205.883 199.045 206.237 198.309 206.733 197.544C207.327 196.341 208.078 195.421 208.984 194.472C214.421 189.092 216.191 182.65 215.299 175.188C215.129 173.503 215.256 171.917 215.667 170.318C215.865 169.44 216.361 168.689 217.012 168.194C217.663 167.698 218.484 167.33 219.348 167.387C221.203 167.486 223.256 167.995 223.907 170.204C224.516 171.988 224.856 173.956 225.181 175.769C225.493 177.439 225.521 179.153 225.719 181.121L226.003 181.092L225.988 181.106ZM220.948 195.987L227.787 200.277L230.788 191.867L223.751 191.301L221.09 195.973H220.948V195.987Z" fill="#102185"/>
<path d="M156.738 78.5128C157.05 80.1835 157.078 81.8967 156.668 83.4967C156.257 85.0966 155.577 86.739 154.558 87.985C151.415 92.1476 146.856 93.4502 141.985 93.0962C138.828 92.8414 135.868 91.7228 133.546 89.8255C129.525 86.6681 125.391 83.6808 121.356 80.3818C117.335 77.2245 113.894 74.1662 109.293 72.2123C106.164 70.8247 102.893 69.4372 99.6648 68.4886C98.3481 68.1912 97.003 67.4692 96.0402 66.4356C95.0774 65.3879 94.3836 64.1843 93.973 62.7968C91.4669 54.9388 95.3747 48.4258 103.615 46.8825C109.208 45.8914 114.956 46.4579 120.251 48.1994C129.653 51.0877 138.502 55.6043 146.374 61.65C148.866 63.8163 151.259 66.2799 153.227 68.9276C155.478 71.5469 156.682 74.9874 156.738 78.3854V78.527V78.5128ZM103.261 59.0024L107.126 60.6023C108.755 61.2961 110.525 61.8199 112.167 62.6552C119.926 66.2798 126.439 71.6035 132.966 77.0688C135.288 78.966 137.879 80.6932 140.484 82.4348C141.405 83.0577 142.58 83.5108 143.727 83.525C146.134 83.4259 147.606 82.4206 146.926 79.9287C146.771 78.3854 146.204 77.012 145.496 75.6669C143.67 73.0051 141.433 70.669 138.955 68.6443C132.357 63.9012 125.15 60.2199 117.391 58.0112C114.319 57.1758 111.147 56.7936 107.863 56.6945C106.985 56.4963 106.022 56.7369 105.201 57.105C104.38 57.4731 103.757 58.252 103.403 58.9882H103.261V59.0024Z" fill="#102185"/>
<path d="M174.451 106.038C174.904 110.54 174.593 114.561 172.554 118.327C171.223 120.592 169.099 122.235 166.607 122.914C164.115 123.594 161.524 123.283 159.259 121.952C156.965 120.338 154.785 118.554 152.746 116.628C152.109 115.977 151.599 115.184 151.231 114.363C149.73 110.809 149.065 107.043 149.532 103.149C150.155 97.9671 153.369 94.6541 157.999 92.6152C161.963 90.9303 165.659 92.4169 168.887 94.7955C172.865 97.5281 174.281 101.79 174.437 106.052L174.451 106.038ZM163.903 112.791C164.469 111.305 164.738 109.719 164.696 108.02C164.54 106.476 164.37 104.777 163.507 103.305C163.308 102.753 161.977 102.314 161.284 102.385C160.859 102.427 160.462 102.753 160.193 102.923C159.939 103.234 159.684 103.546 159.443 103.999C158.608 107.071 160.08 110.342 163.875 112.664V112.805L163.903 112.791Z" fill="#102185"/>
</svg>

<svg xmlns="http://www.w3.org/2000/svg" width="244" height="323" fill="none" viewBox="0 0 244 323"><path fill="#102185" d="M192.829 282.779c7.405 1.529 8.353 2.435 8.82 9.925.425 7.066.85 14.145 1.133 21.097.128 1.274-.028 2.562-.326 3.879-.056.864-.552 1.614-1.061 2.237-.51.623-1.303 1.133-2.138 1.359-2.492.68-4.998 1.218-7.533 1.473-5.38.255-10.803.099-16.084-.085-5.409-.028-10.987-.311-16.537-.326-8.411-.141-16.821-.297-25.373-.439h-16.933c-5.692 0-11.271-.283-16.962-.283-5.267-.042-10.534-.071-15.66-.127-5.989-.114-11.978-.213-17.967-.326-5.409-.028-10.817-.042-16.084-.085-5.848-.127-11.696-.24-17.685-.354-4.842-.085-9.698-.156-14.54-.24-.85.084-1.728-.255-2.606-.453-.878-.199-1.5-.708-2.124-1.346-.495-.665-.863-1.472-.948-2.322-.184-1.826-.354-3.525-.397-5.366.114-5.989.213-11.978.468-17.981.056-2.28.113-4.559.438-6.881.312-2.591 1.374-4.687 4.305-5.267 1.94-.482 3.88-1.105 6.23-1.77.184-1.019.368-2.025.41-3.03-.042-3.271-.099-6.683-.142-9.939-.184-7.519-.396-15.192-.58-22.711-.24-9.514-.34-18.887-.439-28.416-.24-9.515-.325-18.746-.538-27.977-.283-12.644-.41-25.288-.708-38.073-.212-9.231-.439-18.448-.51-27.694.085-6.272-.537-12.474.524-18.831 2.266-14.173 8.028-27.708 16.693-39.106 8.028-10.775 18.846-19.114 31.305-24.07 6.13-2.746 12.46-4.813 19.044-5.904 4.488-.594 8.806-1.6 13.309-2.053 6.782-.538 13.634-.24 20.289.807 9.231 1.204 18.137 3.44 26.732 6.839 12.728 4.842 22.285 13.55 30.058 24.296 2.492 3.596 4.729 7.348 6.952 11.115 3.271 5.649 5.607 11.822 6.966 18.222 1.671 6.668 2.209 13.436 1.756 20.317-.51 4.885-.156 9.699-.241 14.541-.141 8.552-.269 17.104-.396 25.655-.028 5.409-.043 10.818-.085 16.085-.057 6.555-.099 13.096-.17 19.51-.028 5.409-.042 10.817-.085 16.084-.141 8.552-.269 17.104-.269 25.642l-.085 16.084c-.056 6.555-.099 13.096-.17 19.51-.155 5.565-.156 11.115-.156 16.807h.142zm-50.957-151.256c1.854.099 3.596.354 5.437.311 2.421.043 4.898.652 7.008 1.714 2.237 1.061 4.106 2.577 5.72 4.545 2.124 2.775 3.724 5.89 4.63 9.217 2.067 6.343 2.265 12.573-2.138 18.293-.382.467-.609 1.062-.68 1.769.057.567.128 1.275.468 1.799a52.7 52.7 0 0 1 3.2 7.787c3.1 11.072-.935 23.149-12.488 27.156-.567.057-.963.382-1.345.708-.397.326-.638.779-.878 1.232-1.43 4.134-4.347 7.702-8.283 9.656-2.152 1.218-2.11 1.642-1.713 4.163.693 4.063 1.387 8.113 1.656 12.219.567 5.635.708 11.312 1.26 16.806.921 9.16 1.699 18.321 2.507 27.637.169 1.685.212 3.54.24 5.239 4.234.991 33.16 1.501 36.487.595.085-6.273.156-12.545.099-18.789-.028-5.975-.085-12.091-.113-18.066.099-8.835.212-17.67.311-26.505-.028-3.129.1-6.131.057-9.26.142-5.706.142-11.256.297-16.82.057-3.71-.028-7.391-.127-11.086.099-6.131.184-12.262.283-18.393 0-5.691-.028-11.524-.028-17.216.141-8.552.269-17.104.269-25.641-.128-2.691.028-5.409.184-8.127.793-6.202-.397-12.347-1.699-18.322-2.166-10.166-7.334-19.185-13.706-27.227-3.086-3.808-6.286-7.334-9.897-10.675-4.87-4.489-10.973-7.15-17.018-9.387-10.931-4.022-22.654-5.975-34.321-5.933-11.964-.07-23.8 2.393-34.675 7.476-4.502 1.883-8.835 4.162-12.827 6.838-8.113 5.65-14.315 13.253-19.313 21.578-3.78 6.216-6.654 13.054-8.212 20.176-1.543 7.278-2.067 14.725-1.897 22.102.142 9.939.453 20.02.595 29.959.226 10.789.453 21.436.68 32.239.07 3.554.155 7.235.226 10.789 0 7.108 0 14.088.127 21.054.085 7.957.467 15.886.694 23.843.07 3.554.156 7.235.227 10.789.141 9.939.155 19.907.311 29.988.057.566.255 1.118.595 1.642 10.336.949 37.138 1.388 40.324.496 1.925-21.818 3.992-43.665 5.89-65.767-19.794-1.557-31.178-22.753-24.566-37.647-3.68-4.036-6.966-8.411-7.546-14.187-.977-5.451.297-11.129 3.242-15.844 3.214-4.87 8.269-6.952 13.366-8.608 0-9.954 4.403-17.09 12.771-21.493 8.92-4.743 17.146-2.152 24.778 3.058 9.514-4.375 8.693-4.148 16.594-4.8 2.392-.24 4.842.085 7.093 1.133 7.292 3.115 13.026 7.801 15.971 15.9l-.156-.127zm-1.898 74.333c.949-1.94 1.784-3.455 2.337-5.069 1.132-2.818 2.789-4.828 5.847-5.565.708-.07 1.515-.439 2.195-.792 1.642-.595 3.242-1.756 4.233-3.129 1.147-1.402 1.812-3.172 1.912-5.027a17.3 17.3 0 0 0-.765-7.603c-.821-2.478-2.053-4.771-3.795-6.584-2.718-3.001-2.845-5.691-.311-8.792a24 24 0 0 0 2.407-2.945c.864-1.374 1.402-2.988 1.671-4.573.07-3.568-.864-7.165-3.016-10.223-.68-1.076-1.628-1.968-2.69-2.718-1.062-.609-2.365-.907-3.653-.907-2.124.071-4.276-.141-6.57-.198-4.134 0-6.131-1.515-7.504-5.224l-.113-1.133c-.482-1.94-1.388-3.851-2.676-5.423a14.9 14.9 0 0 0-4.658-3.794c-1.813-.949-3.71-1.473-5.862-1.685-1.996-.085-4.12.127-5.89.878-2.478.821-4.941 1.784-6.683 4.233-2.237 3.214-5.239 3.087-8.099.099-1.741-1.812-3.766-3.468-6.145-4.502-1.94-.949-4.12-1.288-6.244-1.218-2.11.213-4.176.85-6.06 2.039-1.727 1.175-3.27 2.888-4.205 4.842-.948 1.94-1.288 4.12-1.217 6.244a17.5 17.5 0 0 1-.043 3.851c-.396 4.588-1.67 6.004-6.116 7.023l-1.827.184c-1.543.156-3.228.467-4.559 1.317s-2.492 2.095-3.214 3.455c-.963 1.798-1.444 3.992-1.515 6.13a12.65 12.65 0 0 0 1.742 5.947c1.19 1.869 2.62 3.44 4.332 4.828 3.752 3.327 4.276 5.692 1.87 10.053-.369.608-.723 1.359-1.077 2.095-.439 1.331-.736 2.634-.736 4.064.878 7.305 3.922 13.549 11.2 16.523.75.353 1.486.566 2.208.778.453.241 1.02.184 1.444.142.567-.057.991-.099 1.36-.567.396-.325.792-.651 1.033-1.104s.34-.892.425-1.472l.552-3.044c.312-1.176.934-2.082 1.855-2.747.92-.666 2.18-.935 3.341-.765 1.006.043 2.01.227 3.016.269 10.973.17 21.946.354 32.933.666 2.846 0 5.565.155 8.439.424 4.035.454 4.814 1.218 5.493 5.14a10.8 10.8 0 0 0 2.676 5.423l.736.212zm51.906 87.259a5722 5722 0 0 0-34.391-.949c-11.271-.283-22.527-.439-33.797-.722s-22.229-.325-33.358-.623c-11.129-.297-22.569-.863-33.825-1.005s-22.413-.736-33.924-.566l-.595 20.983c1.713.113 3.313.382 4.73.382 1.415 0 2.817-.283 4.247-.142l24.947.482c2.988-.014 5.834-.014 8.835.099 5.706.141 11.554.255 17.26.396 5.408.029 10.817.043 16.084.085 5.706.142 11.554.255 17.259.397 5.706.141 11.526-.028 17.217-.028 8.269.169 16.679.311 24.948.481 5.125.056 10.251.099 15.39.156 5.706.141 11.554.255 17.246.255.849-.085 1.543-.156 2.364-.524l-.793-19.129h.142zm-83.763-12.191c3.186.539 6.471.623 9.6.595s6.145.241 9.274.198c3.129-.028 6.343.779 9.67-.113-.311-5.947-.453-11.624-.906-17.415-.538-5.352-1.487-10.52-1.741-15.9-.581-14.173-3.101-28.006-4.673-42.079-.042-.425-.368-.822-.694-1.218-6.697-.043-13.578-.623-20.501-.071-1.827 7.306-1.26 14.357-.553 21.394.708 7.037 1.77 9.075 2.507 13.55 2.194 11.879 1.869 24.14-.949 35.807-.411 1.599-.68 3.199-1.175 5.238h.141zm-10.52.071c1.006-4.092 2.323-8.056 3.059-11.978 1.458-9.543 1.345-19.199-.467-28.699-1.119-6.867-2.096-13.734-2.79-20.644-.212-3.539-.156-7.235.198-10.689 0-1.416 0-2.705.142-4.276l-5.876-.411c-1.19 3.681-7.376 72.322-6.824 76.386l12.714.425-.156-.128zM39.392 21.03c-.184 1.018-.51 2.038-.85 2.93-.595 1.203-1.303 2.549-2.053 3.624-3.554 5.622-5.451 12.22-5.635 18.93 0 2.705-.326 5.296-.75 8.043-.17 1.16-.638 2.194-1.402 2.987a4.94 4.94 0 0 1-2.988 1.444c-1.132.114-2.28-.056-3.341-.665s-1.713-1.53-2.237-2.478c-.567-1.36-.722-2.917-1.303-4.417-1.246-3.866-2.492-7.717-3.865-11.568-1.345-3.426-3.78-5.026-7.547-4.22l-.708.072c-2.534.254-4.587-.397-5.96-2.676-.524-.95-.78-2.053-.75-3.2a4.4 4.4 0 0 1 1.26-2.974c1.118-1.67 2.364-3.37 3.765-4.927a21.6 21.6 0 0 0 5.21-10.491c.27-1.586.695-3.058 1.105-4.517.552-1.614 1.105-3.1 2.11-4.488 2.237-3.214 5.932-3.3 8.254.028 1.345 1.997 2.69 4.134 3.767 6.315a9.7 9.7 0 0 0 3.242 3.936c1.387.991 3.016 1.685 4.743 1.94 4.177.439 5.621 2.138 5.89 6.23v.141zm-23.858 4.827 7.49 6.499 3.964-8.65-7.532-5.509-3.78 7.646h-.142zM225.988 181.106c1.303.156 2.464.468 3.767.623 3.469.51 6.909.722 10.251 1.53 3.341.807 4.856 4.346 3.327 7.631-.482.906-.963 1.798-1.572 2.718a28.2 28.2 0 0 0-4.389 10.124c-.609 2.478-.765 5.054-.651 7.603.255 2.534.085 5.111.056 7.674a4.43 4.43 0 0 1-.948 3.228c-.765.934-1.685 1.6-2.804 1.841-1.246.41-2.392.24-3.582-.213s-1.996-1.5-2.534-2.591c-1.232-2.293-2.039-4.63-3.115-6.937-.92-2.039-2.11-4.05-3.313-6.075-.68-1.076-1.614-1.826-2.662-2.435-1.189-.453-2.336-.623-3.61-.495-1.275.127-2.535.255-3.724-.199-.864-.056-1.6-.41-2.365-.906-.623-.509-1.26-1.161-1.614-1.826-.368-.821-.594-1.642-.538-2.506-.085-.85.269-1.586.765-2.351.594-1.203 1.345-2.123 2.251-3.072 5.437-5.38 7.207-11.822 6.315-19.284a13.7 13.7 0 0 1 .368-4.87 3.7 3.7 0 0 1 1.345-2.124c.651-.496 1.472-.864 2.336-.807 1.855.099 3.908.608 4.559 2.817.609 1.784.949 3.752 1.274 5.565.312 1.67.34 3.384.538 5.352l.284-.029zm-5.04 14.881 6.839 4.29 3.001-8.41-7.037-.566-2.661 4.672h-.142z"/><path fill="#102185" d="M156.738 78.513c.312 1.67.34 3.384-.07 4.984s-1.091 3.242-2.11 4.488c-3.143 4.163-7.702 5.465-12.573 5.111-3.157-.255-6.117-1.373-8.439-3.27-4.021-3.158-8.155-6.145-12.19-9.444-4.021-3.157-7.462-6.216-12.063-8.17-3.129-1.387-6.4-2.775-9.628-3.723-1.317-.298-2.662-1.02-3.625-2.053a9.1 9.1 0 0 1-2.067-3.64c-2.506-7.857 1.402-14.37 9.642-15.913 5.593-.992 11.341-.425 16.636 1.316 9.402 2.889 18.251 7.405 26.123 13.451 2.492 2.166 4.885 4.63 6.853 7.278 2.251 2.619 3.455 6.06 3.511 9.457v.142zm-53.477-19.51 3.865 1.6c1.629.693 3.399 1.217 5.041 2.052 7.759 3.625 14.272 8.948 20.799 14.414 2.322 1.897 4.913 3.624 7.518 5.366.921.623 2.096 1.076 3.243 1.09 2.407-.1 3.879-1.104 3.199-3.596-.155-1.544-.722-2.917-1.43-4.262-1.826-2.662-4.063-4.998-6.541-7.023-6.598-4.743-13.805-8.424-21.564-10.633-3.072-.835-6.244-1.217-9.528-1.317-.878-.198-1.841.043-2.662.411s-1.444 1.147-1.798 1.883h-.142zM174.451 106.038c.453 4.502.142 8.523-1.897 12.289-1.331 2.265-3.455 3.908-5.947 4.587-2.492.68-5.083.369-7.348-.962a59 59 0 0 1-6.513-5.324 7.8 7.8 0 0 1-1.515-2.265c-1.501-3.554-2.166-7.32-1.699-11.214.623-5.182 3.837-8.495 8.467-10.534 3.964-1.685 7.66-.198 10.888 2.18 3.978 2.733 5.394 6.995 5.55 11.257zm-10.548 6.753c.566-1.486.835-3.072.793-4.771-.156-1.544-.326-3.243-1.189-4.715-.199-.552-1.53-.991-2.223-.92-.425.042-.822.368-1.091.538-.254.311-.509.623-.75 1.076-.835 3.072.637 6.343 4.432 8.665v.141z"/></svg>
